icon-svg/jiocinema.svg

<svg xmlns="http://www.w3.org/2000/svg" viewBox="0 0 24 24"><path fill="#44739e" d="M11.1 15.371a.62.62 0 0 0 .654-.059l1.663-1.25a.624.624 0 0 0 .184-.779.65.65 0 0 0-.184-.221l-1.663-1.25a.63.63 0 0 0-.319-.122.6.6 0 0 0-.335.063.62.62 0 0 0-.346.559v2.5a.62.62 0 0 0 .346.559M12 2a10 10 0 1 0 10 10A10 10 0 0 0 12 2m3.263 4.125.556-.1a.62.62 0 0 1 .467.1.6.6 0 0 1 .169.176.6.6 0 0 1 .089.227l.219 1.238-2.713.484Zm-4.169.737 2.569-.456-1.213 2.119-2.569.45ZM6.7 8.25a.624.624 0 0 1 .513-.706l2.287-.4-1.219 2.112-1.368.244Zm10.3 7.5A1.25 1.25 0 0 1 15.75 17h-7.5A1.25 1.25 0 0 1 7 15.75v-5.625h10Z"/></svg>

<?xml version="1.0" encoding="UTF-8"?>
<svg width="24px" fill="#44739e" height="24px" viewBox="0 0 24 24" version="1.1" xmlns="http://www.w3.org/2000/svg" xmlns:xlink="http://www.w3.org/1999/xlink">
            <path d="m 11.1,15.371 a 0.621,0.621 0 0 0 0.654,-0.059 l 1.663,-1.25 a 0.624,0.624 0 0 0 0.184,-0.779 0.645,0.645 0 0 0 -0.184,-0.221 l -1.663,-1.25 A 0.626,0.626 0 0 0 11.435,11.69 0.616,0.616 0 0 0 11.1,11.753 0.624,0.624 0 0 0 10.754,12.312 v 2.5 A 0.621,0.621 0 0 0 11.1,15.371 Z M 12,2 A 10,10 0 1 0 22,12 10,10 0 0 0 12,2 Z m 3.263,4.125 0.556,-0.1 a 0.624,0.624 0 0 1 0.467,0.1 0.616,0.616 0 0 1 0.169,0.176 0.637,0.637 0 0 1 0.089,0.227 L 16.763,7.766 14.05,8.25 Z M 11.094,6.862 13.663,6.406 12.45,8.525 9.881,8.975 Z M 6.7,8.25 A 0.624,0.624 0 0 1 7.213,7.544 L 9.5,7.144 8.281,9.256 6.913,9.5 Z M 17,15.75 A 1.25,1.25 0 0 1 15.75,17 H 8.25 A 1.25,1.25 0 0 1 7,15.75 v -5.625 h 10 z"/>

</svg>
